public/images/iconCal.svg

<svg fill="none" height="16" viewBox="0 0 16 16" width="16" xmlns="http://www.w3.org/2000/svg" xmlns:xlink="http://www.w3.org/1999/xlink"><clipPath id="a"><path d="m0 0h16v16h-16z"/></clipPath><g clip-path="url(#a)" stroke="#000" stroke-linecap="round" stroke-linejoin="round" stroke-width="1.33333"><path d="m5.33301 1.3335v2.66666"/><path d="m10.667 1.3335v2.66666"/><path d="m12.6667 2.6665h-9.33337c-.73638 0-1.33333.59696-1.33333 1.33334v9.33336c0 .7364.59695 1.3333 1.33333 1.3333h9.33337c.7363 0 1.3333-.5969 1.3333-1.3333v-9.33336c0-.73638-.597-1.33334-1.3333-1.33334z"/><path d="m2 6.6665h12"/></g></svg>

<svg width="16" height="16" viewBox="0 0 16 16" fill="none" xmlns="http://www.w3.org/2000/svg">
<g clip-path="url(#clip0_207_436)">
<path d="M5.33301 1.3335V4.00016" stroke="black" stroke-width="1.33333" stroke-linecap="round" stroke-linejoin="round"/>
<path d="M10.667 1.3335V4.00016" stroke="black" stroke-width="1.33333" stroke-linecap="round" stroke-linejoin="round"/>
<path d="M12.6667 2.6665H3.33333C2.59695 2.6665 2 3.26346 2 3.99984V13.3332C2 14.0696 2.59695 14.6665 3.33333 14.6665H12.6667C13.403 14.6665 14 14.0696 14 13.3332V3.99984C14 3.26346 13.403 2.6665 12.6667 2.6665Z" stroke="black" stroke-width="1.33333" stroke-linecap="round" stroke-linejoin="round"/>
<path d="M2 6.6665H14" stroke="black" stroke-width="1.33333" stroke-linecap="round" stroke-linejoin="round"/>
</g>
<defs>
<clipPath id="clip0_207_436">
<rect width="16" height="16" fill="white"/>
</clipPath>
</defs>
</svg>
